dist/img/svg/phone.svg

<svg width="20" height="20" viewBox="0 0 20 20" fill="none" xmlns="http://www.w3.org/2000/svg">
<path d="M19.4912 15.0682C19.4393 15.0162 19.277 14.8993 19.0044 14.7174C18.7318 14.5354 18.4138 14.3275 18.0504 14.0936C17.6869 13.8467 17.3235 13.6062 16.96 13.3723C16.5966 13.1254 16.2721 12.911 15.9865 12.729C15.7009 12.5341 15.5192 12.4172 15.4413 12.3782C15.3894 12.3392 15.3245 12.3067 15.2466 12.2807C15.1817 12.2547 15.1103 12.2352 15.0324 12.2222C14.9675 12.2092 14.8961 12.2027 14.8183 12.2027C14.7663 12.2027 14.7209 12.2092 14.682 12.2222C14.643 12.2222 14.5976 12.2287 14.5457 12.2417C14.5067 12.2417 14.4613 12.2482 14.4094 12.2612C14.3575 12.2742 14.3055 12.2872 14.2536 12.3002C14.2147 12.3132 14.1692 12.3327 14.1173 12.3587C14.0784 12.3717 14.0329 12.3912 13.981 12.4172C13.9291 12.4302 13.8837 12.4496 13.8447 12.4756C13.5981 12.6056 13.0075 12.937 12.0729 13.4698C11.2811 12.911 10.2946 12.0403 9.11338 10.8577C7.94514 9.68811 7.08195 8.70695 6.52379 7.91423C7.05598 6.96556 7.38698 6.37427 7.51679 6.14035C7.85428 5.49058 7.88673 4.95127 7.61414 4.52242C7.47136 4.3015 7.01055 3.60624 6.23173 2.43665C5.46589 1.26706 5.03104 0.610786 4.9272 0.467836C4.70653 0.155945 4.36904 0 3.91473 0C3.79791 0 3.68108 0.0129955 3.56426 0.0389864C3.46042 0.0649773 3.35008 0.103964 3.23326 0.155945C3.12942 0.194932 3.02557 0.246914 2.92173 0.311891C2.85683 0.363873 2.7465 0.448343 2.59073 0.565302C2.44795 0.682261 2.20781 0.883691 1.87032 1.16959C1.54581 1.4425 1.25375 1.7154 0.994145 1.9883C0.734537 2.24821 0.50089 2.54061 0.293204 2.8655C0.0855179 3.17739 -0.0118351 3.45029 0.00114533 3.68421C0.0141257 4.23002 0.111479 4.80832 0.293204 5.4191C0.474929 6.01689 0.721557 6.61469 1.03309 7.21248C1.34462 7.81027 1.6886 8.40156 2.06503 8.98635C2.45444 9.57115 2.88928 10.1559 3.36956 10.7407C3.84983 11.3255 4.31063 11.8648 4.75197 12.3587C5.1933 12.8395 5.66059 13.3268 6.15385 13.8207C6.91969 14.5874 7.68553 15.3021 8.45138 15.9649C9.21722 16.6147 10.048 17.258 10.9436 17.8947C11.8522 18.5185 12.7674 19.0188 13.689 19.3957C14.6235 19.7726 15.4997 19.974 16.3175 20H16.337C16.5576 20 16.8237 19.896 17.1353 19.6881C17.4468 19.4802 17.7324 19.2398 17.992 18.9669C18.2645 18.707 18.5371 18.4211 18.8097 18.1092C19.0953 17.7843 19.2965 17.5439 19.4133 17.3879C19.5301 17.232 19.608 17.128 19.647 17.076C20.0494 16.5042 20.1078 15.9584 19.8222 15.4386C19.7313 15.2827 19.621 15.1592 19.4912 15.0682ZM18.6345 16.3353C18.2451 16.8811 17.8102 17.4009 17.33 17.8947C16.8497 18.3756 16.4992 18.6615 16.2785 18.7524C15.1103 18.6875 13.7279 18.1611 12.1313 17.1735C10.5477 16.1728 8.84728 14.7628 7.03002 12.9435C5.22575 11.1241 3.82387 9.4217 2.82438 7.83626C1.82489 6.23782 1.29918 4.8603 1.24726 3.7037C1.32514 3.48278 1.60422 3.1319 2.0845 2.65107C2.57775 2.17024 3.09697 1.73489 3.64214 1.34503C3.6681 1.31904 3.69406 1.29955 3.72003 1.28655C3.74599 1.27355 3.77195 1.26706 3.79791 1.26706C3.83685 1.25406 3.87579 1.24756 3.91473 1.24756C3.92771 1.24756 3.94069 1.25406 3.95367 1.26706C4.7325 2.38467 5.5892 3.67771 6.52379 5.1462C6.52379 5.25016 6.48485 5.38661 6.40697 5.55556C6.381 5.59454 6.34855 5.65302 6.30961 5.73099C6.27067 5.80897 6.21875 5.89994 6.15385 6.0039C6.10193 6.10786 6.03702 6.22482 5.95914 6.35478C5.88126 6.48473 5.79689 6.62768 5.70603 6.78363C5.62814 6.93957 5.53728 7.10851 5.43344 7.29045L5.04402 7.97271L5.49185 8.61598C6.10193 9.48668 7.01704 10.5328 8.2372 11.7544C9.45736 12.976 10.4958 13.8856 11.3525 14.4834L11.995 14.9513L12.696 14.5614C13.0724 14.3405 13.4229 14.1391 13.7474 13.9571C14.0719 13.7622 14.299 13.6387 14.4288 13.5867C14.5716 13.4958 14.7014 13.4503 14.8183 13.4503H14.8377C15.8891 14.1131 17.1872 14.9773 18.7318 16.0429C18.7448 16.1339 18.7124 16.2313 18.6345 16.3353Z" fill="#C78E66"/>
</svg>

<svg width="20" height="20" viewBox="0 0 20 20" fill="none" xmlns="http://www.w3.org/2000/svg"><path d="M19.491 15.068c-.052-.052-.214-.169-.487-.35a56.14 56.14 0 0 0-.954-.624 52.55 52.55 0 0 0-1.09-.722 40.162 40.162 0 0 0-.974-.643 6.817 6.817 0 0 0-.545-.35.681.681 0 0 0-.194-.098 1.031 1.031 0 0 0-.215-.059 1.092 1.092 0 0 0-.214-.02.43.43 0 0 0-.136.02.57.57 0 0 0-.136.02.57.57 0 0 0-.137.02l-.155.038a1.069 1.069 0 0 0-.137.059 1.069 1.069 0 0 0-.136.058.433.433 0 0 0-.136.059c-.247.13-.838.461-1.772.994-.792-.559-1.778-1.43-2.96-2.612-1.168-1.17-2.031-2.151-2.59-2.944.533-.948.864-1.54.994-1.774.337-.65.37-1.189.097-1.618-.143-.22-.603-.916-1.382-2.085A109.494 109.494 0 0 0 4.927.467C4.707.157 4.37 0 3.915 0a1.61 1.61 0 0 0-.35.039 2.035 2.035 0 0 0-.332.117 1.744 1.744 0 0 0-.311.156c-.065.052-.175.136-.331.253a61.62 61.62 0 0 0-.72.605c-.325.272-.617.545-.877.818-.26.26-.493.553-.7.877-.208.312-.306.585-.293.82.013.545.11 1.123.292 1.734.182.598.429 1.196.74 1.793.312.598.656 1.19 1.032 1.774.39.585.824 1.17 1.305 1.755.48.585.94 1.124 1.382 1.618.441.48.909.968 1.402 1.462a43.338 43.338 0 0 0 2.297 2.144 36.87 36.87 0 0 0 2.493 1.93 14.675 14.675 0 0 0 2.745 1.5c.934.378 1.81.579 2.628.605h.02c.22 0 .487-.104.798-.312a5.04 5.04 0 0 0 .857-.721c.273-.26.545-.546.818-.858.285-.325.487-.565.603-.721l.234-.312c.402-.572.46-1.118.175-1.637a1.15 1.15 0 0 0-.33-.37zm-.857 1.267a13.375 13.375 0 0 1-1.304 1.56c-.48.48-.83.767-1.051.857-1.169-.064-2.551-.59-4.148-1.578-1.583-1.001-3.284-2.411-5.101-4.23-1.804-1.82-3.206-3.522-4.206-5.108-1-1.598-1.525-2.976-1.577-4.132.078-.221.357-.572.837-1.053a13.56 13.56 0 0 1 1.558-1.306.305.305 0 0 1 .078-.058.173.173 0 0 1 .078-.02.367.367 0 0 1 .117-.02c.013 0 .026.007.039.02a113.3 113.3 0 0 1 2.57 3.88c0 .103-.04.24-.117.409a1.731 1.731 0 0 0-.097.175c-.04.078-.091.169-.156.273-.052.104-.117.22-.195.35-.078.13-.162.274-.253.43a9.989 9.989 0 0 1-.273.506l-.389.683.448.643c.61.87 1.525 1.917 2.745 3.138 1.22 1.222 2.259 2.132 3.115 2.73l.643.467.701-.39c.376-.22.727-.422 1.051-.604.325-.195.552-.318.682-.37a.743.743 0 0 1 .39-.137h.019c1.051.663 2.35 1.527 3.894 2.593.013.09-.02.188-.098.292z" fill="#C78E66"/></svg>
